assets/icons/help.svg

<?xml version="1.0" encoding="UTF-8" standalone="no"?>
<svg
   viewBox="-32 0 512 512"
   version="1.1"
   id="svg4"
   width="512"
   height="512"
   xmlns="http://www.w3.org/2000/svg"
   xmlns:svg="http://www.w3.org/2000/svg">
  <defs
     id="defs8" />
  <!--! Font Awesome Pro 6.4.0 by @fontawesome - https://fontawesome.com License - https://fontawesome.com/license (Commercial License) Copyright 2023 Fonticons, Inc. -->
  <path
     d="M 96,0 C 43,0 0,43 0,96 v 320 c 0,53 43,96 96,96 h 288 32 c 17.7,0 32,-14.3 32,-32 0,-17.7 -14.3,-32 -32,-32 v -64 c 17.7,0 32,-14.3 32,-32 V 32 C 448,14.3 433.7,0 416,0 h -32 z m 0,384 h 256 v 64 H 96 c -17.7,0 -32,-14.3 -32,-32 0,-17.7 14.3,-32 32,-32 z m 32,-240 c 0,-8.8 7.2,-16 16,-16 h 192 c 8.8,0 16,7.2 16,16 0,8.8 -7.2,16 -16,16 H 144 c -8.8,0 -16,-7.2 -16,-16 z m 16,48 h 192 c 8.8,0 16,7.2 16,16 0,8.8 -7.2,16 -16,16 H 144 c -8.8,0 -16,-7.2 -16,-16 0,-8.8 7.2,-16 16,-16 z"
     id="path2" />
</svg>

<svg xmlns="http://www.w3.org/2000/svg" viewBox="0 0 448 512"><!--! Font Awesome Pro 6.4.0 by @fontawesome - https://fontawesome.com License - https://fontawesome.com/license (Commercial License) Copyright 2023 Fonticons, Inc. --><path d="M96 0C43 0 0 43 0 96V416c0 53 43 96 96 96H384h32c17.7 0 32-14.3 32-32s-14.3-32-32-32V384c17.7 0 32-14.3 32-32V32c0-17.7-14.3-32-32-32H384 96zm0 384H352v64H96c-17.7 0-32-14.3-32-32s14.3-32 32-32zm32-240c0-8.8 7.2-16 16-16H336c8.8 0 16 7.2 16 16s-7.2 16-16 16H144c-8.8 0-16-7.2-16-16zm16 48H336c8.8 0 16 7.2 16 16s-7.2 16-16 16H144c-8.8 0-16-7.2-16-16s7.2-16 16-16z"/></svg>
